X:131
T:Winster Gallop (in C and D)
Z:Jack Campin, http://www.campin.me.uk/
F:Jack Campin's Nine-Note Tunebook
% last edit 03-02-2013
M:2/4
L:1/16
Q:1/4=130
K:C
|:C2EE C2E2|C2E2 G4  |D2FF E2D2|C2E2 G4 |
  F2A2 B2A2|G2E2 G4  |D3F  E2D2|C8     :|
|:c2B2 A2G2|c2B2 A2G2|c2B2 A2G2|F2E2 D4 |
  B2A2 G4  |B2A2 G4  |G4   D3 F|E2C2 C4:|
K:D
|:D2FF D2F2|D2F2 A4  |E2GG F2E2|D2F2 A4 |
  G2B2 c2B2|A2F2 A4  |E3G  F2E2|D8     :|
|:d2c2 B2A2|d2c2 B2A2|d2c2 B2A2|G2F2 E4 |
  c2B2 A4  |c2B2 A4  |A4   E3G |F2D2 D4:|

